packages/gestalt-icons-android/vr-theme/ic_vr_target_gestalt.svg

<svg width="24" height="24" viewBox="0 0 24 24" fill="none" xmlns="http://www.w3.org/2000/svg">
<path fill-rule="evenodd" clip-rule="evenodd" d="M20 2.58579V0H22V2H24V4H21.4142L14.7076 10.7066C14.895 11.0982 15 11.5369 15 12C15 13.6569 13.6569 15 12 15C10.3431 15 9 13.6569 9 12C9 10.3431 10.3431 9 12 9C12.4631 9 12.9018 9.10495 13.2934 9.29237L14.7574 7.8284C13.967 7.30488 13.0191 7 12 7C9.23858 7 7 9.23858 7 12C7 14.7614 9.23858 17 12 17C14.7614 17 17 14.7614 17 12C17 11.7361 16.9796 11.4769 16.9402 11.2241L18.5741 9.5901C18.8496 10.3414 19 11.1532 19 12C19 15.866 15.866 19 12 19C8.13401 19 5 15.866 5 12C5 8.13401 8.13401 5 12 5C13.5723 5 15.0236 5.5184 16.1922 6.39362L17.6177 4.9681C16.078 3.73647 14.125 3 12 3C7.02944 3 3 7.02944 3 12C3 16.9706 7.02944 21 12 21C16.9706 21 21 16.9706 21 12C21 10.5897 20.6756 9.25511 20.0974 8.06685L21.5778 6.58637C22.4832 8.18466 23 10.032 23 12C23 18.0751 18.0751 23 12 23C5.92487 23 1 18.0751 1 12C1 5.92487 5.92487 1 12 1C14.6775 1 17.1316 1.95662 19.0391 3.54673L20 2.58579ZM13 12C13 12.5523 12.5523 13 12 13C11.4477 13 11 12.5523 11 12C11 11.4477 11.4477 11 12 11C12.5523 11 13 11.4477 13 12Z" fill="black"/>
</svg>

<svg xmlns="http://www.w3.org/2000/svg" width="24" height="24"><path d="M20 2.59V0h2v2h2v2h-2.59l-6.7 6.7q.29.6.29 1.3a3 3 0 1 1-1.7-2.7l1.46-1.47a5 5 0 1 0 2.18 3.4l1.63-1.64A7 7 0 0 1 12 19a7 7 0 1 1 4.2-12.6l1.42-1.43a9 9 0 1 0 2.48 3.1l1.48-1.48a11 11 0 1 1-2.54-3.04zM12 11a1 1 0 1 0 0 2 1 1 0 0 0 0-2"/></svg>
